X: 11529
T: Eddie Moloney's Favourite
R: reel
M: 4/4
K: Edorian
B2 GB EBGB|BAFA DAFA|B2GB EFGA|(3Bcd ed Bded|
B2 GB dGBd|A2FA DAFA|BEED EFGA|(3Bcd ed Bdef||
g3f gfed|ABBA Bdef|gbfa egfd|Beed e3f|
g3f gfed|B2AB GBAF|E3F GFGA|(3Bcd ed e3d||

